icons/svg/sport/bowling.svg

<?xml version="1.0" encoding="UTF-8" standalone="no"?>
<!-- Created with Inkscape (http://www.inkscape.org/) -->

<svg
   xmlns:dc="http://purl.org/dc/elements/1.1/"
   xmlns:cc="http://creativecommons.org/ns#"
   xmlns:rdf="http://www.w3.org/1999/02/22-rdf-syntax-ns#"
   xmlns:svg="http://www.w3.org/2000/svg"
   xmlns="http://www.w3.org/2000/svg"
   xmlns:sodipodi="http://sodipodi.sourceforge.net/DTD/sodipodi-0.dtd"
   xmlns:inkscape="http://www.inkscape.org/namespaces/inkscape"
   version="1.0"
   width="580"
   height="580"
   id="svg2"
   sodipodi:version="0.32"
   inkscape:version="0.48.4 r9939"
   sodipodi:docname="hockey.svg"
   inkscape:output_extension="org.inkscape.output.svg.inkscape">
  <metadata
     id="metadata2975">
    <rdf:RDF>
      <cc:Work
         rdf:about="">
        <dc:format>image/svg+xml</dc:format>
        <dc:type
           rdf:resource="http://purl.org/dc/dcmitype/StillImage" />
        <cc:license
           rdf:resource="http://web.resource.org/cc/PublicDomain" />
        <dc:language>en</dc:language>
        <dc:title></dc:title>
      </cc:Work>
    </rdf:RDF>
  </metadata>
  <sodipodi:namedview
     inkscape:window-height="1004"
     inkscape:window-width="1920"
     inkscape:pageshadow="2"
     inkscape:pageopacity="0.0"
     guidetolerance="10.0"
     gridtolerance="10.0"
     objecttolerance="10.0"
     borderopacity="1.0"
     bordercolor="#666666"
     pagecolor="#ffffff"
     id="base"
     inkscape:zoom="0.46083856"
     inkscape:cx="628.31907"
     inkscape:cy="287.61822"
     inkscape:window-x="1680"
     inkscape:window-y="0"
     inkscape:current-layer="svg2"
     showgrid="false"
     inkscape:window-maximized="1" />
  <defs
     id="defs4">
    <inkscape:perspective
       sodipodi:type="inkscape:persp3d"
       inkscape:vp_x="0 : 290 : 1"
       inkscape:vp_y="0 : 1000 : 0"
       inkscape:vp_z="580 : 290 : 1"
       inkscape:persp3d-origin="290 : 193.33333 : 1"
       id="perspective10" />
  </defs>
  <g
     id="g1327">
    <path
       d="M 66.275,1.768 C 24.94,1.768 1.704,23.139 1.704,66.804 l 0,450.123 c 0,40.844 20.895,62.229 62.192,62.229 l 452.024,0 c 41.307,0 62.229,-20.315 62.229,-62.229 l 0,-450.123 c 0,-42.601 -20.922,-65.036 -63.521,-65.036 -0.004,0 -448.495,-0.143 -448.353,0 z"
       style="fill:#111111;stroke:#eeeeee;stroke-width:3.40799999"
       id="path1329"
       inkscape:connector-curvature="0" />
  </g>
  <path
     inkscape:connector-curvature="0"
     d="m 226.9323,206.77539 c -80.97582,0 -145.341214,64.36539 -145.341214,145.34121 0,80.97582 64.365394,145.34121 145.341214,145.34121 80.97578,0 145.34118,-64.36539 145.34118,-145.34121 0,-80.97582 -64.3654,-145.34121 -145.34118,-145.34121 z m -10.38151,103.81515 c -16.61043,0 -31.14455,-14.53412 -31.14455,-31.14455 0,-16.61042 14.53412,-31.14454 31.14455,-31.14454 16.61042,0 31.14454,14.53412 31.14454,31.14454 0,16.61043 -14.53412,31.14455 -31.14454,31.14455 z m 72.67059,20.76303 c -12.4578,0 -20.763,-8.30521 -20.763,-20.76303 0,-12.45782 8.3052,-20.76303 20.763,-20.76303 12.4578,0 20.763,8.30521 20.763,20.76303 0,12.45782 -8.3052,20.76303 -20.763,20.76303 z m -62.28908,41.52606 c -12.45782,0 -20.76303,-8.30521 -20.76303,-20.76303 0,-12.45782 8.30521,-20.76303 20.76303,-20.76303 12.45782,0 20.76303,8.30521 20.76303,20.76303 0,12.45782 -8.30521,20.76303 -20.76303,20.76303 z"
     id="path3"
     style="fill:#ffffff;fill-opacity:1" />
  <g
     transform="matrix(20.76303,0,0,20.76303,40.065026,40.671138)"
     id="g5"
     style="fill:#ffffff;fill-opacity:1">
    <path
       inkscape:connector-curvature="0"
       d="m 16.9,6.1 c 0,0.3 0,0.6 -0.1,0.9 h 3.4 c 0,-0.3 -0.1,-0.6 -0.1,-0.9 0,-0.4 0.2,-0.9 0.3,-1.4 0.1,-0.4 0.1,-0.8 0,-1.2 C 20.2,2.8 19.7,2.2 19,2.1 c -1.4,-0.4 -2.6,0.7 -2.6,2 0,0.2 0,0.4 0.1,0.6 0.2,0.4 0.4,1.1 0.4,1.4 z"
       id="path7"
       style="fill:#ffffff;fill-opacity:1" />
    <path
       inkscape:connector-curvature="0"
       d="m 20.4,8 h -3.7 c -0.2,0.8 -0.4,1.7 -0.6,2.3 0.9,1.4 1.4,3 1.4,4.7 0,2 -0.7,3.8 -1.8,5.3 0.2,0.4 1.4,0.7 2.9,0.7 1.6,0 2.9,-0.4 2.9,-0.8 0,-0.2 0.3,-2.4 0.5,-4.2 0.2,-1.8 0,-2.9 -0.6,-4.6 -0.2,-0.5 -0.7,-1.9 -1,-3.4 z"
       id="path9"
       style="fill:#ffffff;fill-opacity:1" />
  </g>
</svg>

<svg width="580" height="580" viewBox="0 0 580 580" fill="none" xmlns="http://www.w3.org/2000/svg">
<g clip-path="url(#clip0)">
<path d="M66.2751 1.76815C24.9401 1.76815 1.7041 23.1391 1.7041 66.8041V516.927C1.7041 557.771 22.5991 579.156 63.8961 579.156H515.92C557.227 579.156 578.149 558.841 578.149 516.927V66.8041C578.149 24.2031 557.227 1.76815 514.628 1.76815C514.624 1.76815 66.1331 1.62515 66.2751 1.76815V1.76815Z" fill="#111111" stroke="#EEEEEE" stroke-width="3.408"/>
<path d="M226.932 206.775C145.956 206.775 81.5911 271.141 81.5911 352.117C81.5911 433.092 145.956 497.458 226.932 497.458C307.908 497.458 372.273 433.092 372.273 352.117C372.273 271.141 307.908 206.775 226.932 206.775V206.775ZM216.551 310.591C199.94 310.591 185.406 296.056 185.406 279.446C185.406 262.836 199.94 248.301 216.551 248.301C233.161 248.301 247.695 262.836 247.695 279.446C247.695 296.056 233.161 310.591 216.551 310.591ZM289.221 331.354C276.764 331.354 268.458 323.048 268.458 310.591C268.458 298.133 276.764 289.828 289.221 289.828C301.679 289.828 309.984 298.133 309.984 310.591C309.984 323.048 301.679 331.354 289.221 331.354ZM226.932 372.88C214.474 372.88 206.169 364.574 206.169 352.117C206.169 339.659 214.474 331.354 226.932 331.354C239.39 331.354 247.695 339.659 247.695 352.117C247.695 364.574 239.39 372.88 226.932 372.88Z" fill="white"/>
<path d="M390.96 167.325C390.96 173.554 390.96 179.783 388.884 186.012H459.478C459.478 179.783 457.402 173.554 457.402 167.325C457.402 159.02 461.555 148.639 463.631 138.257C465.707 129.952 465.707 121.647 463.631 113.342C459.478 98.8074 449.097 86.3496 434.563 84.2733C405.495 75.9681 380.579 98.8074 380.579 125.799C380.579 129.952 380.579 134.105 382.655 138.257C386.808 146.562 390.96 161.097 390.96 167.325Z" fill="white"/>
<path d="M463.631 206.775H386.808C382.655 223.386 378.503 242.073 374.35 254.53C393.037 283.599 403.418 316.819 403.418 352.117C403.418 393.643 388.884 431.016 366.045 462.161C370.197 470.466 395.113 476.695 426.257 476.695C459.478 476.695 486.47 468.39 486.47 460.084C486.47 455.932 492.699 410.253 496.852 372.88C501.004 335.506 496.852 312.667 484.394 277.37C480.241 266.988 469.86 237.92 463.631 206.775V206.775Z" fill="white"/>
</g>
<defs>
<clipPath id="clip0">
<path d="M0 0H580V580H0V0Z" fill="white"/>
</clipPath>
</defs>
</svg>
